X:1
T:I Was Young (Poor Man's Labour)
M:6/4
L:1/4
K:C
 z/2 E/2| E A/2A/2 A E| E D/2B,/2 D B,| E/2E/2 A A/2A/2 E| E D/2B,/2 A,|\
 z| E E/2E/2 A,3/2 B,/2| B, B, G, E,|
M:6/4
 G, G,/2A,/2 B, E/2E/2 D B,| G,/2- A,3/2- A,||
